img/decor/twitter-logo.svg

<svg width="32" height="32" viewBox="0 0 32 32" fill="none" xmlns="http://www.w3.org/2000/svg">
<path d="M16 0C12.8355 0 9.74207 0.938384 7.11088 2.69649C4.4797 4.45459 2.42894 6.95345 1.21793 9.87706C0.0069325 12.8007 -0.309921 16.0177 0.307443 19.1214C0.924806 22.2251 2.44866 25.0761 4.6863 27.3137C6.92394 29.5513 9.77487 31.0752 12.8786 31.6926C15.9823 32.3099 19.1993 31.9931 22.1229 30.7821C25.0466 29.5711 27.5454 27.5203 29.3035 24.8891C31.0616 22.2579 32 19.1645 32 16C32 11.7565 30.3143 7.68687 27.3137 4.68629C24.3131 1.68571 20.2435 0 16 0ZM23.94 12.81C23.69 19.33 20.48 23.64 12.94 23.51H12.46C12.01 23.51 7.91001 23.07 7.11001 21.69C8.8989 21.9555 10.7228 21.5494 12.23 20.55C11.18 20.26 9.31001 20.09 8.98001 17.7C9.39279 17.8642 9.84415 17.9058 10.28 17.82C9.00001 17 7.53001 16.3 7.61001 14.17C8.02796 14.4893 8.54454 14.652 9.07001 14.63C8.30001 14.4 6.92001 11.39 8.07001 9.85C10.07 11.64 12.14 13.33 15.87 13.49C16.1 11.28 17.11 9.79 19.04 9.17C19.7375 8.93332 20.4908 8.91568 21.1986 9.11946C21.9065 9.32323 22.5351 9.73867 23 10.31C23.74 10.08 24.45 9.84 25.19 9.62C25.1758 9.95711 25.0846 10.2865 24.9234 10.5829C24.7622 10.8793 24.5353 11.1349 24.26 11.33C24.5167 11.3601 24.7768 11.3336 25.0221 11.2524C25.2674 11.1712 25.492 11.0372 25.68 10.86C25.5628 11.2985 25.3443 11.7034 25.0421 12.0421C24.7399 12.3808 24.3624 12.6438 23.94 12.81Z" fill="white"/>
</svg>

<svg width="32" height="32" fill="none" xmlns="http://www.w3.org/2000/svg"><path d="M16 0a16 16 0 100 32 16 16 0 000-32zm7.94 12.81c-.25 6.52-3.46 10.83-11 10.7h-.48c-.45 0-4.55-.44-5.35-1.82a7.32 7.32 0 005.12-1.14c-1.05-.29-2.92-.46-3.25-2.85.41.16.86.2 1.3.12C9 17 7.53 16.3 7.61 14.17c.42.32.93.48 1.46.46-.77-.23-2.15-3.24-1-4.78 2 1.79 4.07 3.48 7.8 3.64.23-2.21 1.24-3.7 3.17-4.32A3.61 3.61 0 0123 10.31c.74-.23 1.45-.47 2.19-.69a2.21 2.21 0 01-.93 1.71 1.77 1.77 0 001.42-.47 2.9 2.9 0 01-1.74 1.95z" fill="#fff"/></svg>
